X:53202
F:http://www.vwml.org/record/HAM/5/32/2
%VWML:HAM-5-32-2-0
T:Oh! who is this under my window
S:Mrs Marina Russell, Upwey coll. c1906 HED Hammond O:England
A:Dorset
N:Transcribed from HAM-02-247.gif
F:HAM-05-32-02.abc
Z:EFDSS;P J Headford
M:3/2
L:1/4
Q:1/2=90
K:G
D|GF G3A/B/|cA/G/ GD zA/B/|cc B2 G2|FG A3B/c/|
dB/B/ c2 dd|GG (GF) DE|=FD C2 D2|GF G3|| W:Transcribed from HAM-02-247.gif
W:[on a page with a printed:] 53 [in the top right corner.] W:[left of the title:] 556
W:[to the right of the title:] Russell [and, pencilled:] Upwey W:Further words and notes in HAM-05-32-02.rtf.
